public/img/cow.svg

<?xml version="1.0" encoding="UTF-8" standalone="no"?>
<!-- Created with Inkscape (http://www.inkscape.org/) -->

<svg
   xmlns:dc="http://purl.org/dc/elements/1.1/"
   xmlns:cc="http://creativecommons.org/ns#"
   xmlns:rdf="http://www.w3.org/1999/02/22-rdf-syntax-ns#"
   xmlns:svg="http://www.w3.org/2000/svg"
   xmlns="http://www.w3.org/2000/svg"
   xmlns:sodipodi="http://sodipodi.sourceforge.net/DTD/sodipodi-0.dtd"
   xmlns:inkscape="http://www.inkscape.org/namespaces/inkscape"
   version="1.0"
   width="50"
   height="50"
   id="svg2"
   inkscape:version="0.48.1 r9760"
   sodipodi:docname="cow.svg">
  <metadata
     id="metadata27">
    <rdf:RDF>
      <cc:Work
         rdf:about="">
        <dc:format>image/svg+xml</dc:format>
        <dc:type
           rdf:resource="http://purl.org/dc/dcmitype/StillImage" />
      </cc:Work>
    </rdf:RDF>
  </metadata>
  <sodipodi:namedview
     pagecolor="#ffffff"
     bordercolor="#666666"
     borderopacity="1"
     objecttolerance="10"
     gridtolerance="10"
     guidetolerance="10"
     inkscape:pageopacity="0"
     inkscape:pageshadow="2"
     inkscape:window-width="1366"
     inkscape:window-height="710"
     id="namedview25"
     showgrid="false"
     inkscape:zoom="8.8726228"
     inkscape:cx="38.107005"
     inkscape:cy="25.781342"
     inkscape:window-x="0"
     inkscape:window-y="26"
     inkscape:window-maximized="1"
     inkscape:current-layer="svg2" />
  <defs
     id="defs4" />
  <g
     transform="matrix(0.19636525,0,0,0.19636525,-43.985967,-84.052074)"
     id="layer1">
    <path
       d="m 441.29462,560.70587 c 0.0148,49.72803 -40.29355,90.04842 -90.02158,90.04842 -49.72803,0 -90.0364,-40.32039 -90.02158,-90.04842 -0.0148,-49.72803 40.29355,-90.04842 90.02158,-90.04842 49.72803,0 90.0364,40.32039 90.02158,90.04842 z"
       transform="matrix(1.2167832,0,0,1.2167832,-76.150099,-121.55162)"
       id="path2383"
       style="fill:#ffffff;fill-opacity:1;fill-rule:nonzero;stroke:#000000;stroke-width:3.28735638;stroke-linecap:round;stroke-linejoin:round;stroke-miterlimit:4;stroke-opacity:1;stroke-dasharray:none"
       inkscape:connector-curvature="0" />
    <path
       d="m 441.08808,500.81586 c -5.40118,6.5541 -6.24204,17.00939 -4.56036,21.04543 1.24066,2.97759 9.47404,4.44202 17.34784,5.17662 -3.08352,-9.3702 -7.40519,-18.18122 -12.78748,-26.22205 z m -193.41461,29.39582 c -2.86756,9.71753 -4.40946,19.98109 -4.40629,30.62834 -0.002,5.56181 0.42338,11.02622 1.23253,16.36182 8.18155,4.7505 18.80139,20.38833 27.85515,21.56926 11.33927,1.47903 8.87421,-21.69251 1.97205,-23.17155 -6.90216,-1.47903 -9.86023,-12.32529 -10.35324,-24.15756 -0.33107,-7.94562 -4.68127,-15.67012 -16.3002,-21.23031 z m 211.53278,27.7319 c -2.91511,1.35717 -5.62341,3.39137 -7.88818,6.31671 -11.83228,15.28336 -21.69251,4.93011 -33.52479,10.35324 -11.83228,5.42313 -3.94409,19.22745 0.49301,32.53876 3.21228,9.63684 -2.6052,28.82146 4.40629,34.75732 22.43604,-19.79772 36.58491,-48.79433 36.5753,-81.06959 2.8e-4,-0.97361 -0.005,-1.92901 -0.0308,-2.89644 -0.009,0.004 -0.0221,-0.004 -0.0308,0 z m -146.91745,9.27478 c 4.93012,15.28336 -5.91614,9.86023 -7.88818,20.21347 -1.97205,10.35324 33.03177,13.31131 38.94791,34.51081 5.91614,21.1995 32.53877,9.86023 32.04575,-1.97205 -0.49301,-11.83227 -17.74841,-17.2554 -13.31131,-24.15756 4.43711,-6.90216 13.31131,-21.1995 13.31131,-21.1995 l -63.10548,-7.39517 z"
       id="path3173"
       style="fill:#4d4d4d;fill-opacity:1;fill-rule:evenodd;stroke:none"
       inkscape:connector-curvature="0" />
    <path
       d="m 454.1875,523.125 c 0.0768,1.68161 0.125,3.39329 0.125,5.09375 0,60.46428 -49.06696,109.53125 -109.53125,109.53125 -47.26217,0 -87.5912,-29.99927 -102.9375,-71.96875 2.65351,58.11219 50.67363,104.46875 109.4375,104.46875 60.46429,0 109.53125,-49.06697 109.53125,-109.53125 0,-13.20218 -2.33815,-25.87003 -6.625,-37.59375 z"
       id="path3221"
       style="fill:#000000;fill-opacity:0.31372549;fill-rule:nonzero;stroke:none"
       inkscape:connector-curvature="0" />
    <path
       d="m 359.45331,671.27549 c 0,9.09078 14.66533,9.38135 32.73511,9.38135 18.06978,0 32.73512,0.69349 32.73512,-9.38135 0,-17.71594 -14.66534,-32.0941 -32.73512,-32.0941 -18.06978,0 -32.73511,14.37816 -32.73511,32.0941 z"
       id="path3172"
       style="fill:#333333;fill-opacity:1;fill-rule:nonzero;stroke:#000000;stroke-width:3.99999976;stroke-linecap:round;stroke-linejoin:round;stroke-miterlimit:4;stroke-opacity:1"
       inkscape:connector-curvature="0" />
    <path
       d="m 435.90825,525.42049 c 0,45.17448 -55.12119,81.83781 -81.8378,81.83781 -25.71825,0 -81.8378,-36.66333 -81.8378,-81.83781 0,-45.17446 24.62503,-81.8378 81.8378,-81.8378 57.22259,0 81.8378,36.66334 81.8378,81.8378 z"
       id="path3236"
       style="fill:#000000;fill-opacity:0.31372549;fill-rule:nonzero;stroke:none"
       inkscape:connector-curvature="0" />
    <path
       d="m 404.77885,680.0559 c 0,-16.36756 -9.44283,-26.43991 -9.44283,-26.43991 0,0 3.77713,13.84948 3.14761,26.43991 l 6.29522,0 z"
       id="path3174"
       style="fill:#000000;fill-opacity:0.31372549;fill-rule:evenodd;stroke:#000000;stroke-width:4;stroke-linecap:butt;stroke-linejoin:round;stroke-miterlimit:4;stroke-opacity:1;stroke-dasharray:none"
       inkscape:connector-curvature="0" />
    <path
       d="m 108.875,46.34375 c -30.12925,0.610589 -50.931674,11.653269 -63.625,28.75 -24.06444,-2.587792 -44.0625,23.625 -44.0625,23.625 0,2e-6 18.89113,9.44632 32.0625,1.53125 -2.399229,8.71172 -3.5625,18.10595 -3.5625,27.90625 0,45.17448 56.125502,81.84375 81.84375,81.84375 26.71661,0 81.84375,-36.66927 81.84375,-81.84375 0,-9.8003 -1.16389,-19.19453 -3.5625,-27.90625 13.17137,7.91507 32.03125,-1.531251 32.03125,-1.53125 0,0 -19.97122,-26.20456 -44.03125,-23.625 -13.06166,-17.594988 -34.70768,-28.75 -66.28125,-28.75 -0.89395,0 -1.77818,-0.01779 -2.65625,0 z"
       transform="translate(239.73628,384.06586)"
       id="path3155"
       style="fill:#ffffff;fill-opacity:1;fill-rule:nonzero;stroke:#000000;stroke-width:4;stroke-linecap:round;stroke-linejoin:round;stroke-miterlimit:4;stroke-opacity:1"
       inkscape:connector-curvature="0" />
    <path
       d="m 365.48628,432.37836 c 25.72095,17.92613 -3.04956,17.14231 -8.75,23.28125 -6.5,7 -9,17 -1.5,23.5 7.5,6.5 46,17.50001 51.5,-0.5 2.83534,-9.27929 -0.56613,-20.80215 -2.34375,-30.96875 -10.01754,-7.86146 -22.90449,-13.24222 -38.90625,-15.3125 z"
       id="path3185"
       style="fill:#4d4d4d;fill-opacity:1;fill-rule:evenodd;stroke:none"
       inkscape:connector-curvature="0" />
    <path
       d="m 441.29462,560.70587 c 0.0148,49.72803 -40.29355,90.04842 -90.02158,90.04842 -49.72803,0 -90.0364,-40.32039 -90.02158,-90.04842 -0.0148,-49.72803 40.29355,-90.04842 90.02158,-90.04842 49.72803,0 90.0364,40.32039 90.02158,90.04842 z"
       transform="matrix(0.2517482,0,0,0.2517482,236.54837,359.07889)"
       id="path3157"
       style="fill:#ffffff;fill-opacity:1;fill-rule:nonzero;stroke:#000000;stroke-width:15.88889027;stroke-linecap:round;stroke-linejoin:round;stroke-miterlimit:4;stroke-opacity:1;stroke-dasharray:none"
       inkscape:connector-curvature="0" />
    <path
       d="m 441.29462,560.70587 c 0.0148,49.72803 -40.29355,90.04842 -90.02158,90.04842 -49.72803,0 -90.0364,-40.32039 -90.02158,-90.04842 -0.0148,-49.72803 40.29355,-90.04842 90.02158,-90.04842 49.72803,0 90.0364,40.32039 90.02158,90.04842 z"
       transform="matrix(0.2517482,0,0,0.2517482,289.28057,359.07889)"
       id="path3159"
       style="fill:#ffffff;fill-opacity:1;fill-rule:nonzero;stroke:#000000;stroke-width:15.88889027;stroke-linecap:round;stroke-linejoin:round;stroke-miterlimit:4;stroke-opacity:1;stroke-dasharray:none"
       inkscape:connector-curvature="0" />
    <path
       d="m 441.29462,560.70587 c 0.0148,49.72803 -40.29355,90.04842 -90.02158,90.04842 -49.72803,0 -90.0364,-40.32039 -90.02158,-90.04842 -0.0148,-49.72803 40.29355,-90.04842 90.02158,-90.04842 49.72803,0 90.0364,40.32039 90.02158,90.04842 z"
       transform="matrix(0.08391603,0,0,0.08391603,343.19932,457.18337)"
       id="path3161"
       style="fill:#000000;fill-opacity:1;fill-rule:nonzero;stroke:none"
       inkscape:connector-curvature="0" />
    <path
       d="m 441.29462,560.70587 c 0.0148,49.72803 -40.29355,90.04842 -90.02158,90.04842 -49.72803,0 -90.0364,-40.32039 -90.02158,-90.04842 -0.0148,-49.72803 40.29355,-90.04842 90.02158,-90.04842 49.72803,0 90.0364,40.32039 90.02158,90.04842 z"
       transform="matrix(0.08391603,0,0,0.08391603,301.16898,457.18337)"
       id="path3163"
       style="fill:#000000;fill-opacity:1;fill-rule:nonzero;stroke:none"
       inkscape:connector-curvature="0" />
    <path
       d="m 111.53125,159.59375 c -19.862065,0 -35.968753,13.216 -35.96875,29.5 0,3.01956 0.564111,5.94363 1.59375,8.6875 C 89.867882,205.52467 102.5506,210 111.53125,210 c 9.19823,0 21.75693,-4.33121 34.28125,-11.875 1.11318,-2.84275 1.71875,-5.88658 1.71875,-9.03125 0,-16.284 -16.13793,-29.5 -36,-29.5 z"
       transform="translate(239.73628,384.06586)"
       id="path3210"
       style="fill:#ffd5e5;fill-opacity:1;fill-rule:nonzero;stroke:#000000;stroke-width:4;stroke-linecap:round;stroke-linejoin:round;stroke-miterlimit:4;stroke-opacity:1;stroke-dasharray:none"
       inkscape:connector-curvature="0" />
    <path
       d="M 190.09375,101.34375 188.21875,104 c 0.24888,3.07548 0.34375,6.20264 0.34375,9.375 0,45.17449 -55.12714,81.84375 -81.84375,81.84375 -20.705808,2e-5 -61.09673,-23.75565 -76.0625,-56.59375 7.61581,40.24628 57.1719,71.37501 80.875,71.375 26.71661,0 81.84375,-36.6693 81.84375,-81.84375 0,-9.39155 -1.07538,-18.41026 -3.28125,-26.8125 z"
       transform="translate(239.73628,384.06586)"
       id="path3231"
       style="fill:#000000;fill-opacity:0.31372549;fill-rule:nonzero;stroke:none"
       inkscape:connector-curvature="0" />
    <path
       d="m 344.4555,671.27549 c 0,9.09078 -14.66533,9.38135 -32.73511,9.38135 -18.06978,0 -32.73512,0.69349 -32.73512,-9.38135 0,-17.71594 14.66534,-32.0941 32.73512,-32.0941 18.06978,0 32.73511,14.37816 32.73511,32.0941 z"
       id="path3329"
       style="fill:#333333;fill-opacity:1;fill-rule:nonzero;stroke:#000000;stroke-width:3.99999976;stroke-linecap:round;stroke-linejoin:round;stroke-miterlimit:4;stroke-opacity:1"
       inkscape:connector-curvature="0" />
    <path
       d="m 299.12996,680.0559 c 0,-16.36756 9.44283,-26.43991 9.44283,-26.43991 0,0 -3.77713,13.84948 -3.14761,26.43991 l -6.29522,0 z"
       id="path3331"
       style="fill:#000000;fill-opacity:0.31372549;fill-rule:evenodd;stroke:#000000;stroke-width:4;stroke-linecap:butt;stroke-linejoin:round;stroke-miterlimit:4;stroke-opacity:1;stroke-dasharray:none"
       inkscape:connector-curvature="0" />
    <path
       d="m 367.86847,568.86692 c -2.29272,3.97309 -6.50025,5.8386 -9.39677,4.16629 -2.89654,-1.67231 -3.38472,-6.2489 -1.09029,-10.22099 2.29273,-3.9731 6.50026,-5.83861 9.39679,-4.1663 2.89653,1.67231 3.38471,6.2489 1.09027,10.221 z"
       id="path2398"
       style="fill:#000000;fill-opacity:1;fill-rule:nonzero;stroke:none"
       inkscape:connector-curvature="0" />
    <path
       d="m 335.13142,568.86692 c 2.29272,3.97309 6.50025,5.8386 9.39677,4.16629 2.89654,-1.67231 3.38472,-6.2489 1.09029,-10.22099 -2.29273,-3.9731 -6.50026,-5.83861 -9.39679,-4.1663 -2.89653,1.67231 -3.38471,6.2489 -1.09027,10.221 z"
       id="path2412"
       style="fill:#000000;fill-opacity:1;fill-rule:nonzero;stroke:none"
       inkscape:connector-curvature="0" />
    <path
       d="m 292.23628,460.667 c -7.3329,-1.32806 -15.5,-21.5 -12.5,-25.5 3,-4 26.3741,4.46627 27,13.5 0.55216,7.96942 -5.38595,13.65064 -14.5,12 z"
       id="path2399"
       style="fill:#333333;fill-opacity:1;fill-rule:evenodd;stroke:#000000;stroke-width:4;stroke-linecap:butt;stroke-linejoin:miter;stroke-miterlimit:4;stroke-opacity:1;stroke-dasharray:none"
       inkscape:connector-curvature="0" />
    <path
       d="m 409.13453,460.667 c 7.3329,-1.32806 15.5,-21.5 12.5,-25.5 -3,-4 -26.3741,4.46627 -27,13.5 -0.55216,7.96942 5.38595,13.65064 14.5,12 z"
       id="path3171"
       style="fill:#333333;fill-opacity:1;fill-rule:evenodd;stroke:#000000;stroke-width:4;stroke-linecap:butt;stroke-linejoin:miter;stroke-miterlimit:4;stroke-opacity:1;stroke-dasharray:none"
       inkscape:connector-curvature="0" />
  </g>
</svg>

<?xml version="1.0" encoding="UTF-8" standalone="no"?>
<!-- Created with Inkscape (http://www.inkscape.org/) -->
<svg
   xmlns:svg="http://www.w3.org/2000/svg"
   xmlns="http://www.w3.org/2000/svg"
   version="1.0"
   width="224.65625"
   height="254.26529"
   id="svg2">
  <defs
     id="defs4" />
  <g
     transform="translate(-238.92378,-428.4017)"
     id="layer1">
    <path
       d="M 441.29462,560.70587 C 441.30944,610.4339 401.00107,650.75429 351.27304,650.75429 C 301.54501,650.75429 261.23664,610.4339 261.25146,560.70587 C 261.23664,510.97784 301.54501,470.65745 351.27304,470.65745 C 401.00107,470.65745 441.30944,510.97784 441.29462,560.70587 z"
       transform="matrix(1.2167832,0,0,1.2167832,-76.150099,-121.55162)"
       id="path2383"
       style="opacity:1;fill:#ffffff;fill-opacity:1;fill-rule:nonzero;stroke:#000000;stroke-width:3.28735638;stroke-linecap:round;stroke-linejoin:round;stroke-miterlimit:4;stroke-dasharray:none;stroke-opacity:1" />
    <path
       d="M 441.08808,500.81586 C 435.6869,507.36996 434.84604,517.82525 436.52772,521.86129 C 437.76838,524.83888 446.00176,526.30331 453.87556,527.03791 C 450.79204,517.66771 446.47037,508.85669 441.08808,500.81586 z M 247.67347,530.21168 C 244.80591,539.92921 243.26401,550.19277 243.26718,560.84002 C 243.26552,566.40183 243.69056,571.86624 244.49971,577.20184 C 252.68126,581.95234 263.3011,597.59017 272.35486,598.7711 C 283.69413,600.25013 281.22907,577.07859 274.32691,575.59955 C 267.42475,574.12052 264.46668,563.27426 263.97367,551.44199 C 263.6426,543.49637 259.2924,535.77187 247.67347,530.21168 z M 459.20625,557.94358 C 456.29114,559.30075 453.58284,561.33495 451.31807,564.26029 C 439.48579,579.54365 429.62556,569.1904 417.79328,574.61353 C 405.961,580.03666 413.84919,593.84098 418.28629,607.15229 C 421.49857,616.78913 415.68109,635.97375 422.69258,641.90961 C 445.12862,622.11189 459.27749,593.11528 459.26788,560.84002 C 459.26816,559.86641 459.26238,558.91101 459.23706,557.94358 C 459.2284,557.9476 459.21492,557.93954 459.20625,557.94358 z M 312.2888,567.21836 C 317.21892,582.50172 306.37266,577.07859 304.40062,587.43183 C 302.42857,597.78507 337.43239,600.74314 343.34853,621.94264 C 349.26467,643.14214 375.8873,631.80287 375.39428,619.97059 C 374.90127,608.13832 357.64587,602.71519 362.08297,595.81303 C 366.52008,588.91087 375.39428,574.61353 375.39428,574.61353 L 312.2888,567.21836 z"
       id="path3173"
       style="fill:#4d4d4d;fill-opacity:1;fill-rule:evenodd;stroke:none;stroke-width:1px;stroke-linecap:butt;stroke-linejoin:miter;stroke-opacity:1" />
    <path
       d="M 454.1875,523.125 C 454.26429,524.80661 454.3125,526.51829 454.3125,528.21875 C 454.3125,588.68303 405.24554,637.75 344.78125,637.75 C 297.51908,637.75 257.19005,607.75073 241.84375,565.78125 C 244.49726,623.89344 292.51738,670.25 351.28125,670.25 C 411.74554,670.25 460.8125,621.18303 460.8125,560.71875 C 460.8125,547.51657 458.47435,534.84872 454.1875,523.125 z"
       id="path3221"
       style="opacity:1;fill:#000000;fill-opacity:0.31372549;fill-rule:nonzero;stroke:none;stroke-width:4;stroke-linecap:round;stroke-linejoin:round;stroke-miterlimit:4;stroke-dasharray:none;stroke-opacity:1" />
    <path
       d="M 359.45331,671.27549 C 359.45331,680.36627 374.11864,680.65684 392.18842,680.65684 C 410.2582,680.65684 424.92354,681.35033 424.92354,671.27549 C 424.92354,653.55955 410.2582,639.18139 392.18842,639.18139 C 374.11864,639.18139 359.45331,653.55955 359.45331,671.27549 z"
       id="path3172"
       style="fill:#333333;fill-opacity:1;fill-rule:nonzero;stroke:#000000;stroke-width:3.99999976;stroke-linecap:round;stroke-linejoin:round;stroke-miterlimit:4;stroke-opacity:1" />
    <path
       d="M 435.90825,525.42049 C 435.90825,570.59497 380.78706,607.2583 354.07045,607.2583 C 328.3522,607.2583 272.23265,570.59497 272.23265,525.42049 C 272.23265,480.24603 296.85768,443.58269 354.07045,443.58269 C 411.29304,443.58269 435.90825,480.24603 435.90825,525.42049 z"
       id="path3236"
       style="fill:#000000;fill-opacity:0.31372549;fill-rule:nonzero;stroke:none;stroke-width:4;stroke-linecap:round;stroke-linejoin:round;stroke-miterlimit:4;stroke-opacity:1" />
    <path
       d="M 404.77885,680.0559 C 404.77885,663.68834 395.33602,653.61599 395.33602,653.61599 C 395.33602,653.61599 399.11315,667.46547 398.48363,680.0559 L 404.77885,680.0559 z"
       id="path3174"
       style="fill:#000000;fill-opacity:0.31372549;fill-rule:evenodd;stroke:#000000;stroke-width:4;stroke-linecap:butt;stroke-linejoin:round;stroke-miterlimit:4;stroke-dasharray:none;stroke-opacity:1" />
    <path
       d="M 108.875,46.34375 C 78.74575,46.954339 57.943326,57.997019 45.25,75.09375 C 21.18556,72.505958 1.1875,98.71875 1.1875,98.71875 C 1.1875,98.718752 20.07863,108.16507 33.25,100.25 C 30.850771,108.96172 29.6875,118.35595 29.6875,128.15625 C 29.6875,173.33073 85.813002,210 111.53125,210 C 138.24786,210 193.375,173.33073 193.375,128.15625 C 193.375,118.35595 192.21111,108.96172 189.8125,100.25 C 202.98387,108.16507 221.84375,98.718749 221.84375,98.71875 C 221.84375,98.71875 201.87253,72.51419 177.8125,75.09375 C 164.75084,57.498762 143.10482,46.34375 111.53125,46.34375 C 110.6373,46.34375 109.75307,46.325955 108.875,46.34375 z"
       transform="translate(239.73628,384.06586)"
       id="path3155"
       style="fill:#ffffff;fill-opacity:1;fill-rule:nonzero;stroke:#000000;stroke-width:4;stroke-linecap:round;stroke-linejoin:round;stroke-miterlimit:4;stroke-opacity:1" />
    <path
       d="M 365.48628,432.37836 C 391.20723,450.30449 362.43672,449.52067 356.73628,455.65961 C 350.23628,462.65961 347.73628,472.65961 355.23628,479.15961 C 362.73628,485.65961 401.23628,496.65962 406.73628,478.65961 C 409.57162,469.38032 406.17015,457.85746 404.39253,447.69086 C 394.37499,439.8294 381.48804,434.44864 365.48628,432.37836 z"
       id="path3185"
       style="fill:#4d4d4d;fill-opacity:1;fill-rule:evenodd;stroke:none;stroke-width:1px;stroke-linecap:butt;stroke-linejoin:miter;stroke-opacity:1" />
    <path
       d="M 441.29462,560.70587 C 441.30944,610.4339 401.00107,650.75429 351.27304,650.75429 C 301.54501,650.75429 261.23664,610.4339 261.25146,560.70587 C 261.23664,510.97784 301.54501,470.65745 351.27304,470.65745 C 401.00107,470.65745 441.30944,510.97784 441.29462,560.70587 z"
       transform="matrix(0.2517482,0,0,0.2517482,236.54837,359.07889)"
       id="path3157"
       style="opacity:1;fill:#ffffff;fill-opacity:1;fill-rule:nonzero;stroke:#000000;stroke-width:15.88889027;stroke-linecap:round;stroke-linejoin:round;stroke-miterlimit:4;stroke-dasharray:none;stroke-opacity:1" />
    <path
       d="M 441.29462,560.70587 C 441.30944,610.4339 401.00107,650.75429 351.27304,650.75429 C 301.54501,650.75429 261.23664,610.4339 261.25146,560.70587 C 261.23664,510.97784 301.54501,470.65745 351.27304,470.65745 C 401.00107,470.65745 441.30944,510.97784 441.29462,560.70587 z"
       transform="matrix(0.2517482,0,0,0.2517482,289.28057,359.07889)"
       id="path3159"
       style="opacity:1;fill:#ffffff;fill-opacity:1;fill-rule:nonzero;stroke:#000000;stroke-width:15.88889027;stroke-linecap:round;stroke-linejoin:round;stroke-miterlimit:4;stroke-dasharray:none;stroke-opacity:1" />
    <path
       d="M 441.29462,560.70587 C 441.30944,610.4339 401.00107,650.75429 351.27304,650.75429 C 301.54501,650.75429 261.23664,610.4339 261.25146,560.70587 C 261.23664,510.97784 301.54501,470.65745 351.27304,470.65745 C 401.00107,470.65745 441.30944,510.97784 441.29462,560.70587 z"
       transform="matrix(8.3916033e-2,0,0,8.3916033e-2,343.19932,457.18337)"
       id="path3161"
       style="opacity:1;fill:#000000;fill-opacity:1;fill-rule:nonzero;stroke:none;stroke-width:47.66669083;stroke-linecap:round;stroke-linejoin:round;stroke-miterlimit:4;stroke-dasharray:none;stroke-opacity:1" />
    <path
       d="M 441.29462,560.70587 C 441.30944,610.4339 401.00107,650.75429 351.27304,650.75429 C 301.54501,650.75429 261.23664,610.4339 261.25146,560.70587 C 261.23664,510.97784 301.54501,470.65745 351.27304,470.65745 C 401.00107,470.65745 441.30944,510.97784 441.29462,560.70587 z"
       transform="matrix(8.3916033e-2,0,0,8.3916033e-2,301.16898,457.18337)"
       id="path3163"
       style="opacity:1;fill:#000000;fill-opacity:1;fill-rule:nonzero;stroke:none;stroke-width:47.66669083;stroke-linecap:round;stroke-linejoin:round;stroke-miterlimit:4;stroke-dasharray:none;stroke-opacity:1" />
    <path
       d="M 111.53125,159.59375 C 91.669185,159.59375 75.562497,172.80975 75.5625,189.09375 C 75.5625,192.11331 76.126611,195.03738 77.15625,197.78125 C 89.867882,205.52467 102.5506,210 111.53125,210 C 120.72948,210 133.28818,205.66879 145.8125,198.125 C 146.92568,195.28225 147.53125,192.23842 147.53125,189.09375 C 147.53125,172.80975 131.39332,159.59375 111.53125,159.59375 z"
       transform="translate(239.73628,384.06586)"
       id="path3210"
       style="opacity:1;fill:#ffd5e5;fill-opacity:1;fill-rule:nonzero;stroke:#000000;stroke-width:4;stroke-linecap:round;stroke-linejoin:round;stroke-miterlimit:4;stroke-dasharray:none;stroke-opacity:1" />
    <path
       d="M 190.09375,101.34375 L 188.21875,104 C 188.46763,107.07548 188.5625,110.20264 188.5625,113.375 C 188.5625,158.54949 133.43536,195.21875 106.71875,195.21875 C 86.012942,195.21877 45.62202,171.4631 30.65625,138.625 C 38.27206,178.87128 87.82815,210.00001 111.53125,210 C 138.24786,210 193.375,173.3307 193.375,128.15625 C 193.375,118.7647 192.29962,109.74599 190.09375,101.34375 z"
       transform="translate(239.73628,384.06586)"
       id="path3231"
       style="fill:#000000;fill-opacity:0.31372549;fill-rule:nonzero;stroke:none;stroke-width:4;stroke-linecap:round;stroke-linejoin:round;stroke-miterlimit:4;stroke-opacity:1" />
    <path
       d="M 344.4555,671.27549 C 344.4555,680.36627 329.79017,680.65684 311.72039,680.65684 C 293.65061,680.65684 278.98527,681.35033 278.98527,671.27549 C 278.98527,653.55955 293.65061,639.18139 311.72039,639.18139 C 329.79017,639.18139 344.4555,653.55955 344.4555,671.27549 z"
       id="path3329"
       style="fill:#333333;fill-opacity:1;fill-rule:nonzero;stroke:#000000;stroke-width:3.99999976;stroke-linecap:round;stroke-linejoin:round;stroke-miterlimit:4;stroke-opacity:1" />
    <path
       d="M 299.12996,680.0559 C 299.12996,663.68834 308.57279,653.61599 308.57279,653.61599 C 308.57279,653.61599 304.79566,667.46547 305.42518,680.0559 L 299.12996,680.0559 z"
       id="path3331"
       style="fill:#000000;fill-opacity:0.31372549;fill-rule:evenodd;stroke:#000000;stroke-width:4;stroke-linecap:butt;stroke-linejoin:round;stroke-miterlimit:4;stroke-dasharray:none;stroke-opacity:1" />
    <path
       d="M 367.86847,568.86692 C 365.57575,572.84001 361.36822,574.70552 358.4717,573.03321 C 355.57516,571.3609 355.08698,566.78431 357.38141,562.81222 C 359.67414,558.83912 363.88167,556.97361 366.7782,558.64592 C 369.67473,560.31823 370.16291,564.89482 367.86847,568.86692 z"
       id="path2398"
       style="opacity:1;fill:#000000;fill-opacity:1;fill-rule:nonzero;stroke:none;stroke-width:47.66669083;stroke-linecap:round;stroke-linejoin:round;stroke-miterlimit:4;stroke-dasharray:none;stroke-opacity:1" />
    <path
       d="M 335.13142,568.86692 C 337.42414,572.84001 341.63167,574.70552 344.52819,573.03321 C 347.42473,571.3609 347.91291,566.78431 345.61848,562.81222 C 343.32575,558.83912 339.11822,556.97361 336.22169,558.64592 C 333.32516,560.31823 332.83698,564.89482 335.13142,568.86692 z"
       id="path2412"
       style="opacity:1;fill:#000000;fill-opacity:1;fill-rule:nonzero;stroke:none;stroke-width:47.66669083;stroke-linecap:round;stroke-linejoin:round;stroke-miterlimit:4;stroke-dasharray:none;stroke-opacity:1" />
    <path
       d="M 292.23628,460.667 C 284.90338,459.33894 276.73628,439.167 279.73628,435.167 C 282.73628,431.167 306.11038,439.63327 306.73628,448.667 C 307.28844,456.63642 301.35033,462.31764 292.23628,460.667 z"
       id="path2399"
       style="fill:#333333;fill-opacity:1;fill-rule:evenodd;stroke:#000000;stroke-width:4;stroke-linecap:butt;stroke-linejoin:miter;stroke-miterlimit:4;stroke-dasharray:none;stroke-opacity:1" />
    <path
       d="M 409.13453,460.667 C 416.46743,459.33894 424.63453,439.167 421.63453,435.167 C 418.63453,431.167 395.26043,439.63327 394.63453,448.667 C 394.08237,456.63642 400.02048,462.31764 409.13453,460.667 z"
       id="path3171"
       style="fill:#333333;fill-opacity:1;fill-rule:evenodd;stroke:#000000;stroke-width:4;stroke-linecap:butt;stroke-linejoin:miter;stroke-miterlimit:4;stroke-dasharray:none;stroke-opacity:1" />
  </g>
</svg>
